markets/NEAR.svg

<svg width="42" height="42" viewBox="0 0 42 42" fill="none" xmlns="http://www.w3.org/2000/svg">
<circle cx="21" cy="21" r="21" fill="#DBDBDB"/>
<path d="M28.2909 10.1388L23.2423 17.6394C22.8932 18.1502 23.5646 18.7685 24.0479 18.3384L29.016 14.0101C29.1502 13.9025 29.3382 13.9832 29.3382 14.1714V27.6941C29.3382 27.8822 29.0965 27.9629 28.9891 27.8285L13.9508 9.81616C13.4674 9.22471 12.7692 8.9021 11.9904 8.9021H11.4533C10.0569 8.9021 8.90216 10.0581 8.90216 11.483V30.5169C8.90216 31.9417 10.0569 33.0978 11.4802 33.0978C12.3664 33.0978 13.1988 32.6407 13.6822 31.8611L18.7308 24.3604C19.0799 23.8496 18.4086 23.2313 17.9252 23.6614L12.9571 27.9629C12.8229 28.0704 12.6349 27.9898 12.6349 27.8016V14.3058C12.6349 14.1176 12.8766 14.037 12.984 14.1714L28.0224 32.1837C28.5057 32.7751 29.2308 33.0978 29.9827 33.0978H30.5198C31.9431 33.0978 33.0978 31.9417 33.0978 30.5169V11.483C33.0978 10.0581 31.9431 8.9021 30.5198 8.9021C29.6068 8.9021 28.7743 9.35913 28.2909 10.1388Z" fill="black"/>
</svg>

<svg xmlns="http://www.w3.org/2000/svg" width="42" height="42" fill="none"><circle cx="21" cy="21" r="21" fill="#DBDBDB"/><path fill="#000" d="m28.29 10.139-5.048 7.5c-.349.511.323 1.13.806.7l4.968-4.329c.134-.107.322-.027.322.161v13.523c0 .188-.242.269-.349.134L13.951 9.816a2.484 2.484 0 0 0-1.96-.914h-.538c-1.396 0-2.55 1.156-2.55 2.581v19.034a2.58 2.58 0 0 0 2.577 2.58c.886 0 1.719-.456 2.202-1.236l5.049-7.5c.349-.511-.322-1.13-.806-.7l-4.968 4.302c-.134.107-.322.027-.322-.161V14.306c0-.188.242-.269.349-.135l15.038 18.013a2.523 2.523 0 0 0 1.96.914h.538a2.58 2.58 0 0 0 2.578-2.581V11.483a2.58 2.58 0 0 0-2.578-2.58 2.6 2.6 0 0 0-2.23 1.236Z"/></svg>
